X: 92
T:Untitled. HA.091
M:3/4
L:1/8
Q:100
C:in Hand C
S:Henry Atkinson's original MS,Hartburn,N'umberland,1694.
O:England
A:Hartburn,Northumberland
H:1/8
Z:vmp.Chris Partington.Jan.2004
K:Bb
^f2|g4d2|b4(ag)|(fg)(fe)(dc)|c4(BA)|!
(ga)(g^f)(gd)|b4(ag)|(fg)(fd)(Bc)|d4d2:|!
|:f4(ed)|g4f>e|d>ec2=B>c|=B6|!
cd ef ga|f2d3B|c6|!
A2B2c2|d2ed=e2|f2gfg2|a4d2|!
b2(ag)(fe)|d2(fd) c>A|ABA3G|G6|]
